X:1
T:Partita a-Moll -  2. Capriccio
T:Partita a-Moll -  2. Capriccio
T:Joh. Anton Logy (1650 - 1721)
C:Joh. Anton Logy (1650 - 1721)
%%score ( 1 2 )
L:1/8
Q:1/4=90
M:3/4
K:C
V:1 treble transpose=-12 nm="Nylon Guitar" snm="GuitNyl"
V:2 treble transpose=-12 
V:1
"_2""^\n" AB"^1" (c"^4"d) ef"^1" | e4 z e"^1" | f4 z d | c"^4"d cB"_1" A"^1"G |"_2""_1" A4 z B | %5
"_2""_1" ^G4 z A"^1" | B2 ^G2"^1" ed |"^1" (c"^4"d) c"^1"B"_2" A2 :: %8
"_2" A"^1"B c"^1"e"^4" (d"^1"c) | B6 |"^4""_1" a2"^3""_2" ^c2"^4" de | fg fe (d=c) | B6 | z2 g4 | %14
 c2 d2 B2 | c6 | cd ed (cB) |"_2""_1" A2"_1" z2"_3" z2 | B"^1"c"^4" dc (B"_3"A) | %19
"_2""_1" ^G2 z2"_3" z2 | z2"^4" a2"_2" g2 | fg fe df | e4 c2 | d3 e c2 | %24
 B2"^1""_2" !trill(!TB3 (A/"^1""_1"^G/)"_3" |"_3" A4 A2 :| %26
V:2
 A,6 | CD (CB,) A,2 | DE (DC) B,2 | A,6 | F"_4"G"_2" FE D2 | E"^1"F ED C2 | D2 E2 E,2 | A,4 A2 :: %8
 A,6 | GA GF E2 | F2 A4 | D6 | GA GF ED | E4 G2 | A2 F2 G2 | CD ED CB, | A,6 | F"_4"G AG FE | D6 | %19
 E"_4"F ED CB, | A,4 A2 | D4 G2 | CD CB, A,C | [B,^G]4 [A,A]2 | D2 !trill)!E2 E,2 | z2 A,4 :| %26

